X:40
T:The Dannish Waltz
C:from the playing of Tony Dunn
N:not a waltz, but sounds like one
Q:1/4=120
I:abc2nwc
M:4/4
L:1/8
K:G
(3def|g2g2f2f2|e3/2f/2g3/2e/2 d3B|c3/2d/2e3/2c/2 B3/2c/2d3/2B/2|
A2A2A2 (3def|g2g2f2f2|e3/2f/2g3/2e/2 d3B|
c3/2d/2e3/2c/2 B3/2c/2d3/2B/2|A2A2G2d2|]
[| (3BdB G2 (3BdB G2|B3/2d/2 g3/2f/2 e2d2|
 (3BdB G2 (3BdB G2|A3/2B/2 c3/2B/2 A2d2|
 (3BdB G2 (3BdB G2|B3/2d/2 g3/2f/2 e2d2|
c3/2d/2e3/2c/2 B3/2c/2d3/2B/2|A2A2G4|]
